;FLAVOR:UltiGCode
;TIME:7347
;MATERIAL:13143
;MATERIAL2:0
;NOZZLE_DIAMETER:0.400000
;NOZZLE_DIAMETER2:0.400000

;Layer count: 48
;LAYER:0
M107
G0 F9000 X15.933 Y32.296 Z0.300
;TYPE:SKIRT
G1 F1800 X201.758 Y32.297 E22.29900
G1 X201.758 Y50.658 E24.50232
G1 X15.933 Y50.657 E46.80132
G1 X15.933 Y32.296 E49.00464
G10
G0 F9000 X20.533 Y36.896
;TYPE:WALL-INNER
G11
G1 F1800 X197.158 Y36.897 E70.19964
G1 X197.158 Y46.058 E71.29896
G1 X20.533 Y46.057 E92.49396
G1 X20.533 Y36.896 E93.59328
G0 F9000 X20.133 Y36.496
G1 F1800 X197.558 Y36.497 E114.88428
G1 X197.558 Y46.458 E116.07960
G1 X20.133 Y46.457 E137.37060
G1 X20.133 Y36.496 E138.56592
G0 F9000 X19.733 Y36.096
G1 F1800 X197.958 Y36.097 E159.95292
G1 X197.958 Y46.858 E161.24424
G1 X19.733 Y46.857 E182.63124
G1 X19.733 Y36.096 E183.92256
G0 F9000 X19.333 Y35.696
;TYPE:WALL-OUTER
G1 F1800 X198.358 Y35.697 E205.40556
G1 X198.358 Y47.258 E206.79288
G1 X19.333 Y47.257 E228.27588
G1 X19.333 Y35.696 E229.66320
G0 F9000 X19.543 Y35.996
G0 X20.914 Y37.036
;TYPE:SKIN
G1 F1800 X29.794 Y45.916 E231.17019
G0 F9000 X29.228 Y45.916
G1 F1800 X20.672 Y37.360 E232.62219
G0 F9000 X20.672 Y37.926
G1 F1800 X28.663 Y45.916 E233.97822
G0 F9000 X28.097 Y45.916
G1 F1800 X20.672 Y38.492 E235.23820
G0 F9000 X20.672 Y39.057
G1 F1800 X27.531 Y45.916 E236.40221
G0 F9000 X26.966 Y45.916
G1 F1800 X20.672 Y39.623 E237.47025
G0 F9000 X21.479 Y37.036
G1 F1800 X30.360 Y45.916 E238.97732
G0 F9000 X30.926 Y45.916
G1 F1800 X22.045 Y37.036 E240.48439
G0 F9000 X22.611 Y37.036
G1 F1800 X31.491 Y45.916 E241.99138
G0 F9000 X32.057 Y45.916
G1 F1800 X23.176 Y37.036 E243.49845
G0 F9000 X23.742 Y37.036
G1 F1800 X32.623 Y45.916 E245.00552
G0 F9000 X33.188 Y45.916
G1 F1800 X24.308 Y37.036 E246.51251
G0 F9000 X24.873 Y37.036
G1 F1800 X33.754 Y45.916 E248.01958
G0 F9000 X34.320 Y45.916
G1 F1800 X25.439 Y37.036 E249.52665
G0 F9000 X26.005 Y37.036
G1 F1800 X34.885 Y45.916 E251.03364
G0 F9000 X35.451 Y45.916
G1 F1800 X26.570 Y37.036 E252.54071
G0 F9000 X27.136 Y37.036
G1 F1800 X36.017 Y45.916 E254.04778
G0 F9000 X36.582 Y45.916
G1 F1800 X27.702 Y37.036 E255.55476
G0 F9000 X28.268 Y37.036
G1 F1800 X37.148 Y45.916 E257.06175
G0 F9000 X37.714 Y45.916
G1 F1800 X28.833 Y37.036 E258.56882
G0 F9000 X29.399 Y37.036
G1 F1800 X38.279 Y45.916 E260.07581
G0 F9000 X38.845 Y45.916
G1 F1800 X29.965 Y37.036 E261.58279
G0 F9000 X30.530 Y37.036
G1 F1800 X39.411 Y45.916 E263.08986
G0 F9000 X39.976 Y45.916
G1 F1800 X31.096 Y37.036 E264.59685
G0 F9000 X31.662 Y37.036
G1 F1800 X40.542 Y45.916 E266.10383
G0 F9000 X41.108 Y45.916
G1 F1800 X32.227 Y37.036 E267.61091
G0 F9000 X32.793 Y37.036
G1 F1800 X41.674 Y45.916 E269.11798
G0 F9000 X42.239 Y45.916
G1 F1800 X33.359 Y37.036 E270.62496
G0 F9000 X33.924 Y37.036
G1 F1800 X42.805 Y45.916 E272.13203
G0 F9000 X43.371 Y45.916
G1 F1800 X34.490 Y37.036 E273.63910
G0 F9000 X35.056 Y37.036
G1 F1800 X43.936 Y45.916 E275.14609
G0 F9000 X44.502 Y45.916
G1 F1800 X35.621 Y37.036 E276.65316
G0 F9000 X36.187 Y37.036
G1 F1800 X45.068 Y45.916 E278.16023
G0 F9000 X45.633 Y45.916
G1 F1800 X36.753 Y37.036 E279.66722
G0 F9000 X37.318 Y37.036
G1 F1800 X46.199 Y45.916 E281.17429
G0 F9000 X46.765 Y45.916
G1 F1800 X37.884 Y37.036 E282.68136
G0 F9000 X38.450 Y37.036
G1 F1800 X47.330 Y45.916 E284.18835
G0 F9000 X47.896 Y45.916
G1 F1800 X39.016 Y37.036 E285.69533
G0 F9000 X39.581 Y37.036
G1 F1800 X48.462 Y45.916 E287.20240
G0 F9000 X49.027 Y45.916
G1 F1800 X40.147 Y37.036 E288.70939
G0 F9000 X40.713 Y37.036
G1 F1800 X49.593 Y45.916 E290.21637
G0 F9000 X50.159 Y45.916
G1 F1800 X41.278 Y37.036 E291.72344
G0 F9000 X41.844 Y37.036
G1 F1800 X50.725 Y45.916 E293.23052
G0 F9000 X51.290 Y45.916
G1 F1800 X42.410 Y37.036 E294.73750
G0 F9000 X42.975 Y37.036
G1 F1800 X51.856 Y45.916 E296.24457
G0 F9000 X52.422 Y45.916
G1 F1800 X43.541 Y37.036 E297.75164
G0 F9000 X44.107 Y37.036
G1 F1800 X52.987 Y45.916 E299.25863
G0 F9000 X53.553 Y45.916
G1 F1800 X44.672 Y37.036 E300.76570
G0 F9000 X45.238 Y37.036
G1 F1800 X54.119 Y45.916 E302.27277
G0 F9000 X54.684 Y45.916
G1 F1800 X45.804 Y37.036 E303.77976
G0 F9000 X46.369 Y37.036
G1 F1800 X55.250 Y45.916 E305.28683
G0 F9000 X55.816 Y45.916
G1 F1800 X46.935 Y37.036 E306.79390
G0 F9000 X47.501 Y37.036
G1 F1800 X56.381 Y45.916 E308.30088
G0 F9000 X56.947 Y45.916
G1 F1800 X48.066 Y37.036 E309.80796
G0 F9000 X48.632 Y37.036
G1 F1800 X57.513 Y45.916 E311.31503
G0 F9000 X58.078 Y45.916
G1 F1800 X49.198 Y37.036 E312.82201
G0 F9000 X49.764 Y37.036
G1 F1800 X58.644 Y45.916 E314.32900
G0 F9000 X59.210 Y45.916
G1 F1800 X50.329 Y37.036 E315.83607
G0 F9000 X50.895 Y37.036
G1 F1800 X59.775 Y45.916 E317.34306
G0 F9000 X60.341 Y45.916
G1 F1800 X51.461 Y37.036 E318.85004
G0 F9000 X52.026 Y37.036
G1 F1800 X60.907 Y45.916 E320.35711
G0 F9000 X61.473 Y45.916
G1 F1800 X52.592 Y37.036 E321.86418
G0 F9000 X53.158 Y37.036
G1 F1800 X62.038 Y45.916 E323.37117
G0 F9000 X62.604 Y45.916
G1 F1800 X53.723 Y37.036 E324.87824
G0 F9000 X54.289 Y37.036
G1 F1800 X63.170 Y45.916 E326.38531
G0 F9000 X63.735 Y45.916
G1 F1800 X54.855 Y37.036 E327.89230
G0 F9000 X55.420 Y37.036
G1 F1800 X64.301 Y45.916 E329.39937
G0 F9000 X64.867 Y45.916
G1 F1800 X55.986 Y37.036 E330.90644
G0 F9000 X56.552 Y37.036
G1 F1800 X65.432 Y45.916 E332.41342
G0 F9000 X65.998 Y45.916
G1 F1800 X57.117 Y37.036 E333.92049
G0 F9000 X57.683 Y37.036
G1 F1800 X66.564 Y45.916 E335.42757
G0 F9000 X67.129 Y45.916
G1 F1800 X58.249 Y37.036 E336.93455
G0 F9000 X58.815 Y37.036
G1 F1800 X67.695 Y45.916 E338.44154
G0 F9000 X68.261 Y45.916
G1 F1800 X59.380 Y37.036 E339.94861
G0 F9000 X59.946 Y37.036
G1 F1800 X68.826 Y45.916 E341.45559
G0 F9000 X69.392 Y45.916
G1 F1800 X60.512 Y37.036 E342.96258
G0 F9000 X61.077 Y37.036
G1 F1800 X69.958 Y45.916 E344.46965
G0 F9000 X70.524 Y45.916
G1 F1800 X61.643 Y37.036 E345.97672
G0 F9000 X62.209 Y37.036
G1 F1800 X71.089 Y45.916 E347.48371
G0 F9000 X71.655 Y45.916
G1 F1800 X62.774 Y37.036 E348.99078
G0 F9000 X63.340 Y37.036
G1 F1800 X72.221 Y45.916 E350.49785
G0 F9000 X72.786 Y45.916
G1 F1800 X63.906 Y37.036 E352.00484
G0 F9000 X64.471 Y37.036
G1 F1800 X73.352 Y45.916 E353.51191
G0 F9000 X73.918 Y45.916
G1 F1800 X65.037 Y37.036 E355.01898
G0 F9000 X65.603 Y37.036
G1 F1800 X74.483 Y45.916 E356.52596
G0 F9000 X75.049 Y45.916
G1 F1800 X66.168 Y37.036 E358.03303
G0 F9000 X66.734 Y37.036
G1 F1800 X75.615 Y45.916 E359.54010
G0 F9000 X76.180 Y45.916
G1 F1800 X67.300 Y37.036 E361.04709
G0 F9000 X67.865 Y37.036
G1 F1800 X76.746 Y45.916 E362.55416
G0 F9000 X77.312 Y45.916
G1 F1800 X68.431 Y37.036 E364.06123
G0 F9000 X68.997 Y37.036
G1 F1800 X77.877 Y45.916 E365.56822
G0 F9000 X78.443 Y45.916
G1 F1800 X69.563 Y37.036 E367.07520
G0 F9000 X70.128 Y37.036
G1 F1800 X79.009 Y45.916 E368.58228
G0 F9000 X79.574 Y45.916
G1 F1800 X70.694 Y37.036 E370.08926
G0 F9000 X71.260 Y37.036
G1 F1800 X80.140 Y45.916 E371.59625
G0 F9000 X80.706 Y45.916
G1 F1800 X71.825 Y37.036 E373.10332
G0 F9000 X72.391 Y37.036
G1 F1800 X81.272 Y45.916 E374.61039
G0 F9000 X81.837 Y45.916
G1 F1800 X72.957 Y37.036 E376.11737
G0 F9000 X73.522 Y37.036
G1 F1800 X82.403 Y45.916 E377.62445
G0 F9000 X82.969 Y45.916
G1 F1800 X74.088 Y37.036 E379.13152
G0 F9000 X74.654 Y37.036
G1 F1800 X83.534 Y45.916 E380.63850
G0 F9000 X84.100 Y45.916
G1 F1800 X75.219 Y37.036 E382.14557
G0 F9000 X75.785 Y37.036
G1 F1800 X84.666 Y45.916 E383.65264
G0 F9000 X85.231 Y45.916
G1 F1800 X76.351 Y37.036 E385.15963
G0 F9000 X76.916 Y37.036
G1 F1800 X85.797 Y45.916 E386.66670
G0 F9000 X86.363 Y45.916
G1 F1800 X77.482 Y37.036 E388.17377
G0 F9000 X78.048 Y37.036
G1 F1800 X86.928 Y45.916 E389.68076
G0 F9000 X87.494 Y45.916
G1 F1800 X78.614 Y37.036 E391.18774
G0 F9000 X79.179 Y37.036
G1 F1800 X88.060 Y45.916 E392.69481
G0 F9000 X88.625 Y45.916
G1 F1800 X79.745 Y37.036 E394.20180
G0 F9000 X80.311 Y37.036
G1 F1800 X89.191 Y45.916 E395.70879
G0 F9000 X89.757 Y45.916
G1 F1800 X80.876 Y37.036 E397.21586
G0 F9000 X81.442 Y37.036
G1 F1800 X90.322 Y45.916 E398.72284
G0 F9000 X90.888 Y45.916
G1 F1800 X82.008 Y37.036 E400.22983
G0 F9000 X82.573 Y37.036
G1 F1800 X91.454 Y45.916 E401.73690
G0 F9000 X92.020 Y45.916
G1 F1800 X83.139 Y37.036 E403.24397
G0 F9000 X83.705 Y37.036
G1 F1800 X92.585 Y45.916 E404.75096
G0 F9000 X93.151 Y45.916
G1 F1800 X84.270 Y37.036 E406.25803
G0 F9000 X84.836 Y37.036
G1 F1800 X93.717 Y45.916 E407.76510
G0 F9000 X94.282 Y45.916
G1 F1800 X85.402 Y37.036 E409.27208
G0 F9000 X85.967 Y37.036
G1 F1800 X94.848 Y45.916 E410.77916
G0 F9000 X95.414 Y45.916
G1 F1800 X86.533 Y37.036 E412.28623
G0 F9000 X87.099 Y37.036
G1 F1800 X95.979 Y45.916 E413.79321
G0 F9000 X96.545 Y45.916
G1 F1800 X87.664 Y37.036 E415.30028
G0 F9000 X88.230 Y37.036
G1 F1800 X97.111 Y45.916 E416.80735
G0 F9000 X97.676 Y45.916
G1 F1800 X88.796 Y37.036 E418.31434
G0 F9000 X89.362 Y37.036
G1 F1800 X98.242 Y45.916 E419.82133
G0 F9000 X98.808 Y45.916
G1 F1800 X89.927 Y37.036 E421.32840
G0 F9000 X90.493 Y37.036
G1 F1800 X99.373 Y45.916 E422.83538
G0 F9000 X99.939 Y45.916
G1 F1800 X91.059 Y37.036 E424.34237
G0 F9000 X91.624 Y37.036
G1 F1800 X100.505 Y45.916 E425.84944
G0 F9000 X101.071 Y45.916
G1 F1800 X92.190 Y37.036 E427.35651
G0 F9000 X92.756 Y37.036
G1 F1800 X101.636 Y45.916 E428.86350
G0 F9000 X102.202 Y45.916
G1 F1800 X93.321 Y37.036 E430.37057
G0 F9000 X93.887 Y37.036
G1 F1800 X102.768 Y45.916 E431.87764
G0 F9000 X103.333 Y45.916
G1 F1800 X94.453 Y37.036 E433.38462
G0 F9000 X95.018 Y37.036
G1 F1800 X103.899 Y45.916 E434.89169
G0 F9000 X104.465 Y45.916
G1 F1800 X95.584 Y37.036 E436.39877
G0 F9000 X96.150 Y37.036
G1 F1800 X105.030 Y45.916 E437.90575
G0 F9000 X105.596 Y45.916
G1 F1800 X96.715 Y37.036 E439.41282
G0 F9000 X97.281 Y37.036
G1 F1800 X106.162 Y45.916 E440.91989
G0 F9000 X106.727 Y45.916
G1 F1800 X97.847 Y37.036 E442.42688
G0 F9000 X98.413 Y37.036
G1 F1800 X107.293 Y45.916 E443.93386
G0 F9000 X107.859 Y45.916
G1 F1800 X98.978 Y37.036 E445.44094
G0 F9000 X99.544 Y37.036
G1 F1800 X108.424 Y45.916 E446.94792
G0 F9000 X108.991 Y45.917
G1 F1800 X100.110 Y37.036 E448.45508
G0 F9000 X100.675 Y37.036
G1 F1800 X109.557 Y45.917 E449.96232
G0 F9000 X110.122 Y45.917
G1 F1800 X101.241 Y37.036 E451.46947
G0 F9000 X101.807 Y37.036
G1 F1800 X110.688 Y45.917 E452.97663
G0 F9000 X111.254 Y45.917
G1 F1800 X102.372 Y37.036 E454.48387
G0 F9000 X102.938 Y37.036
G1 F1800 X111.819 Y45.917 E455.99103
G0 F9000 X112.385 Y45.917
G1 F1800 X103.504 Y37.036 E457.49818
G0 F9000 X104.069 Y37.036
G1 F1800 X112.951 Y45.917 E459.00542
G0 F9000 X113.516 Y45.917
G1 F1800 X104.635 Y37.036 E460.51258
G0 F9000 X105.201 Y37.036
G1 F1800 X114.082 Y45.917 E462.01973
G0 F9000 X114.648 Y45.917
G1 F1800 X105.766 Y37.036 E463.52697
G0 F9000 X106.332 Y37.036
G1 F1800 X115.213 Y45.917 E465.03413
G0 F9000 X115.779 Y45.917
G1 F1800 X106.898 Y37.036 E466.54128
G0 F9000 X107.463 Y37.036
G1 F1800 X116.345 Y45.917 E468.04853
G0 F9000 X116.910 Y45.917
G1 F1800 X108.029 Y37.036 E469.55568
G0 F9000 X108.595 Y37.036
G1 F1800 X117.476 Y45.917 E471.06284
G0 F9000 X118.042 Y45.917
G1 F1800 X109.161 Y37.036 E472.56999
G0 F9000 X109.727 Y37.036
G1 F1800 X118.607 Y45.917 E474.07706
G0 F9000 X119.173 Y45.917
G1 F1800 X110.293 Y37.036 E475.58413
G0 F9000 X110.858 Y37.036
G1 F1800 X119.739 Y45.917 E477.09129
G0 F9000 X120.305 Y45.917
G1 F1800 X111.424 Y37.036 E478.59845
G0 F9000 X111.990 Y37.036
G1 F1800 X120.870 Y45.917 E480.10552
G0 F9000 X121.436 Y45.917
G1 F1800 X112.555 Y37.036 E481.61267
G0 F9000 X113.121 Y37.036
G1 F1800 X122.002 Y45.917 E483.11983
G0 F9000 X122.567 Y45.917
G1 F1800 X113.687 Y37.036 E484.62690
G0 F9000 X114.252 Y37.036
G1 F1800 X123.133 Y45.917 E486.13405
G0 F9000 X123.699 Y45.917
G1 F1800 X114.818 Y37.036 E487.64121
G0 F9000 X115.384 Y37.036
G1 F1800 X124.264 Y45.917 E489.14828
G0 F9000 X124.830 Y45.917
G1 F1800 X115.949 Y37.036 E490.65544
G0 F9000 X116.515 Y37.036
G1 F1800 X125.396 Y45.917 E492.16259
G0 F9000 X125.961 Y45.917
G1 F1800 X117.081 Y37.036 E493.66966
G0 F9000 X117.647 Y37.036
G1 F1800 X126.527 Y45.917 E495.17673
G0 F9000 X127.093 Y45.917
G1 F1800 X118.212 Y37.036 E496.68389
G0 F9000 X118.778 Y37.036
G1 F1800 X127.658 Y45.917 E498.19096
G0 F9000 X128.224 Y45.917
G1 F1800 X119.344 Y37.036 E499.69803
G0 F9000 X119.909 Y37.036
G1 F1800 X128.790 Y45.917 E501.20519
G0 F9000 X129.355 Y45.917
G1 F1800 X120.475 Y37.036 E502.71226
G0 F9000 X121.041 Y37.036
G1 F1800 X129.921 Y45.917 E504.21933
G0 F9000 X130.487 Y45.917
G1 F1800 X121.606 Y37.036 E505.72648
G0 F9000 X122.172 Y37.036
G1 F1800 X131.053 Y45.917 E507.23364
G0 F9000 X131.618 Y45.917
G1 F1800 X122.738 Y37.036 E508.74071
G0 F9000 X123.303 Y37.036
G1 F1800 X132.184 Y45.917 E510.24787
G0 F9000 X132.750 Y45.917
G1 F1800 X123.869 Y37.036 E511.75502
G0 F9000 X124.435 Y37.036
G1 F1800 X133.315 Y45.917 E513.26209
G0 F9000 X133.881 Y45.917
G1 F1800 X125.000 Y37.036 E514.76925
G0 F9000 X125.566 Y37.036
G1 F1800 X134.447 Y45.917 E516.27640
G0 F9000 X135.012 Y45.917
G1 F1800 X126.132 Y37.036 E517.78347
G0 F9000 X126.697 Y37.036
G1 F1800 X135.578 Y45.917 E519.29063
G0 F9000 X136.144 Y45.917
G1 F1800 X127.263 Y37.036 E520.79779
G0 F9000 X127.829 Y37.036
G1 F1800 X136.709 Y45.917 E522.30486
G0 F9000 X137.275 Y45.917
G1 F1800 X128.395 Y37.036 E523.81193
G0 F9000 X128.960 Y37.036
G1 F1800 X137.841 Y45.917 E525.31908
G0 F9000 X138.406 Y45.917
G1 F1800 X129.526 Y37.036 E526.82615
G0 F9000 X130.092 Y37.036
G1 F1800 X138.972 Y45.917 E528.33323
G0 F9000 X139.538 Y45.917
G1 F1800 X130.657 Y37.036 E529.84038
G0 F9000 X131.223 Y37.036
G1 F1800 X140.104 Y45.917 E531.34754
G0 F9000 X140.669 Y45.917
G1 F1800 X131.789 Y37.036 E532.85461
G0 F9000 X132.354 Y37.036
G1 F1800 X141.235 Y45.917 E534.36176
G0 F9000 X141.801 Y45.917
G1 F1800 X132.920 Y37.036 E535.86892
G0 F9000 X133.486 Y37.036
G1 F1800 X142.366 Y45.917 E537.37599
G0 F9000 X142.932 Y45.917
G1 F1800 X134.051 Y37.036 E538.88315
G0 F9000 X134.617 Y37.036
G1 F1800 X143.498 Y45.917 E540.39030
G0 F9000 X144.063 Y45.917
G1 F1800 X135.183 Y37.036 E541.89737
G0 F9000 X135.748 Y37.036
G1 F1800 X144.629 Y45.917 E543.40453
G0 F9000 X145.195 Y45.917
G1 F1800 X136.314 Y37.036 E544.91168
G0 F9000 X136.880 Y37.036
G1 F1800 X145.760 Y45.917 E546.41875
G0 F9000 X146.326 Y45.917
G1 F1800 X137.446 Y37.036 E547.92582
G0 F9000 X138.011 Y37.036
G1 F1800 X146.892 Y45.917 E549.43298
G0 F9000 X147.457 Y45.917
G1 F1800 X138.577 Y37.036 E550.94005
G0 F9000 X139.143 Y37.036
G1 F1800 X148.023 Y45.917 E552.44712
G0 F9000 X148.589 Y45.917
G1 F1800 X139.708 Y37.036 E553.95428
G0 F9000 X140.274 Y37.036
G1 F1800 X149.154 Y45.917 E555.46135
G0 F9000 X149.720 Y45.917
G1 F1800 X140.840 Y37.036 E556.96842
G0 F9000 X141.405 Y37.036
G1 F1800 X150.286 Y45.917 E558.47558
G0 F9000 X150.852 Y45.917
G1 F1800 X141.971 Y37.036 E559.98273
G0 F9000 X142.537 Y37.036
G1 F1800 X151.417 Y45.917 E561.48980
G0 F9000 X151.983 Y45.917
G1 F1800 X143.102 Y37.036 E562.99696
G0 F9000 X143.668 Y37.036
G1 F1800 X152.549 Y45.917 E564.50411
G0 F9000 X153.114 Y45.917
G1 F1800 X144.234 Y37.036 E566.01118
G0 F9000 X144.799 Y37.036
G1 F1800 X153.680 Y45.917 E567.51834
G0 F9000 X154.246 Y45.917
G1 F1800 X145.365 Y37.036 E569.02550
G0 F9000 X145.931 Y37.036
G1 F1800 X154.811 Y45.917 E570.53257
G0 F9000 X155.377 Y45.917
G1 F1800 X146.496 Y37.036 E572.03972
G0 F9000 X147.062 Y37.036
G1 F1800 X155.943 Y45.917 E573.54688
G0 F9000 X156.508 Y45.917
G1 F1800 X147.628 Y37.036 E575.05395
G0 F9000 X148.194 Y37.036
G1 F1800 X157.074 Y45.917 E576.56102
G0 F9000 X157.640 Y45.917
G1 F1800 X148.759 Y37.036 E578.06817
G0 F9000 X149.325 Y37.036
G1 F1800 X158.205 Y45.917 E579.57525
G0 F9000 X158.771 Y45.917
G1 F1800 X149.891 Y37.036 E581.08232
G0 F9000 X150.456 Y37.036
