;FLAVOR:UltiGCode
;TIME:1835
;MATERIAL:2135
;MATERIAL2:0
;NOZZLE_DIAMETER:0.400000
;NOZZLE_DIAMETER2:0.400000

;Layer count: 407
;LAYER:0
M107
G0 F9000 X102.300 Y103.615 Z0.300
G0 X101.983 Y104.005
;TYPE:SKIRT
G1 F1800 X102.300 Y103.615 E0.06031
G1 X102.925 Y102.998 E0.16570
G1 X103.284 Y102.646 E0.22603
G1 X103.970 Y102.104 E0.33095
G1 X104.364 Y101.794 E0.39111
G1 X105.112 Y101.327 E0.49692
G1 X105.541 Y101.062 E0.55743
G1 X106.335 Y100.682 E0.66306
G1 X106.791 Y100.467 E0.72356
G1 X108.085 Y100.017 E0.88796
G1 X108.954 Y99.819 E0.99491
G1 X109.446 Y99.711 E1.05536
G1 X110.315 Y99.612 E1.16031
G1 X110.815 Y99.558 E1.22066
G1 X111.693 Y99.557 E1.32602
G1 X112.195 Y99.559 E1.38626
G1 X113.069 Y99.655 E1.49177
G1 X113.569 Y99.713 E1.55218
G1 X114.423 Y99.905 E1.65722
G1 X114.910 Y100.016 E1.71715
G1 X115.750 Y100.305 E1.82375
G1 X116.225 Y100.473 E1.88421
G1 X117.010 Y100.847 E1.98856
G1 X117.465 Y101.064 E2.04905
G1 X118.213 Y101.529 E2.15474
G1 X118.638 Y101.794 E2.21484
G1 X119.332 Y102.340 E2.32081
G1 X119.723 Y102.651 E2.38076
G1 X120.351 Y103.268 E2.48640
G1 X120.708 Y103.623 E2.54682
G1 X121.259 Y104.302 E2.65175
G1 X121.575 Y104.694 E2.71217
G1 X122.051 Y105.437 E2.81806
G1 X122.320 Y105.859 E2.87811
G1 X122.709 Y106.646 E2.98346
G1 X122.931 Y107.097 E3.04378
G1 X123.230 Y107.921 E3.14897
G1 X123.400 Y108.395 E3.20940
G1 X123.608 Y109.256 E3.31569
G1 X123.727 Y109.761 E3.37795
G1 X123.830 Y110.633 E3.48332
G1 X123.848 Y111.225 E3.55439
G1 X123.767 Y112.411 E3.69704
G1 X123.640 Y113.219 E3.79519
G1 X123.497 Y113.905 E3.87928
G1 X123.319 Y114.607 E3.96619
G1 X123.117 Y115.282 E4.05074
G1 X122.871 Y116.010 E4.14295
G1 X122.505 Y116.872 E4.25533
G1 X122.245 Y117.472 E4.33380
G1 X121.529 Y118.684 E4.50272
G1 X120.689 Y119.792 E4.66957
G1 X119.727 Y120.798 E4.83660
G1 X118.655 Y121.685 E5.00357
G1 X117.490 Y122.444 E5.17042
G1 X116.242 Y123.064 E5.33764
G1 X114.933 Y123.535 E5.50458
G1 X113.580 Y123.854 E5.67139
G1 X112.203 Y124.013 E5.83773
G1 X111.698 Y124.015 E5.89833
G1 X110.802 Y124.014 E6.00585
G1 X109.421 Y123.854 E6.17268
G1 X108.068 Y123.535 E6.33949
G1 X106.759 Y123.064 E6.50643
G1 X105.511 Y122.444 E6.67365
G1 X104.346 Y121.685 E6.84051
G1 X103.274 Y120.798 E7.00747
G1 X102.312 Y119.792 E7.17451
G1 X101.470 Y118.681 E7.34179
G1 X100.771 Y117.494 E7.50709
G1 X100.355 Y116.572 E7.62847
G1 X99.980 Y115.578 E7.75596
G1 X99.756 Y114.863 E7.84587
G1 X99.568 Y114.168 E7.93227
G1 X99.406 Y113.451 E8.02047
G1 X99.276 Y112.709 E8.11087
G1 X99.188 Y111.927 E8.20530
G1 X99.154 Y111.071 E8.30810
G1 X99.220 Y110.088 E8.42633
G1 X99.303 Y109.630 E8.48219
G1 X99.484 Y108.878 E8.57500
G1 X99.602 Y108.391 E8.63513
G1 X99.901 Y107.562 E8.74089
G1 X100.073 Y107.092 E8.80094
G1 X100.461 Y106.302 E8.90656
G1 X100.685 Y105.852 E8.96688
G1 X101.156 Y105.115 E9.07184
G1 X101.427 Y104.692 E9.13212
G1 X101.983 Y104.005 E9.23818
G0 F9000 X102.293 Y104.257
G1 F1800 X102.597 Y103.885 E9.29583
G1 X103.205 Y103.283 E9.39850
G1 X103.548 Y102.947 E9.45612
G1 X104.217 Y102.418 E9.55847
G1 X104.594 Y102.121 E9.61606
G1 X105.323 Y101.667 E9.71912
G1 X105.733 Y101.413 E9.77699
G1 X106.507 Y101.043 E9.87994
G1 X106.943 Y100.838 E9.93775
G1 X108.195 Y100.402 E10.09684
G1 X109.042 Y100.209 E10.20109
G1 X109.511 Y100.106 E10.25871
G1 X110.359 Y100.010 E10.36112
G1 X110.837 Y99.958 E10.41882
G1 X111.693 Y99.957 E10.52154
G1 X112.172 Y99.959 E10.57902
G1 X113.024 Y100.053 E10.68188
G1 X113.502 Y100.108 E10.73962
G1 X114.334 Y100.295 E10.84195
G1 X114.800 Y100.401 E10.89930
G1 X115.619 Y100.683 E11.00324
G1 X116.072 Y100.843 E11.06089
G1 X116.838 Y101.208 E11.16271
G1 X117.273 Y101.416 E11.22057
G1 X118.001 Y101.868 E11.32340
G1 X118.408 Y102.122 E11.38097
G1 X119.084 Y102.654 E11.48420
G1 X119.458 Y102.951 E11.54151
G1 X120.069 Y103.552 E11.64435
G1 X120.411 Y103.892 E11.70222
G1 X120.948 Y104.554 E11.80451
G1 X121.250 Y104.928 E11.86220
G1 X121.714 Y105.652 E11.96539
G1 X121.971 Y106.056 E12.02285
G1 X122.351 Y106.823 E12.12557
G1 X122.562 Y107.254 E12.18315
G1 X122.854 Y108.057 E12.28568
G1 X123.017 Y108.510 E12.34346
G1 X123.219 Y109.348 E12.44690
G1 X123.332 Y109.830 E12.50630
G1 X123.430 Y110.663 E12.60695
G1 X123.448 Y111.218 E12.67359
G1 X123.369 Y112.367 E12.81179
G1 X123.247 Y113.147 E12.90653
G1 X123.107 Y113.815 E12.98843
G1 X122.933 Y114.500 E13.07324
G1 X122.736 Y115.160 E13.15590
G1 X122.496 Y115.868 E13.24561
G1 X122.138 Y116.715 E13.35595
G1 X121.888 Y117.290 E13.43119
G1 X121.196 Y118.460 E13.59431
G1 X120.385 Y119.532 E13.75562
G1 X119.454 Y120.505 E13.91721
G1 X118.418 Y121.362 E14.07856
G1 X117.291 Y122.096 E14.23995
G1 X116.085 Y122.696 E14.40159
G1 X114.819 Y123.151 E14.56303
G1 X113.511 Y123.459 E14.72428
G1 X112.179 Y123.613 E14.88518
G1 X111.698 Y123.615 E14.94290
G1 X110.826 Y123.614 E15.04754
G1 X109.490 Y123.459 E15.20894
G1 X108.182 Y123.151 E15.37019
G1 X106.916 Y122.696 E15.53163
G1 X105.710 Y122.096 E15.69327
G1 X104.583 Y121.362 E15.85466
G1 X103.547 Y120.505 E16.01600
G1 X102.616 Y119.532 E16.17760
G1 X101.803 Y118.458 E16.33924
G1 X101.126 Y117.309 E16.49928
G1 X100.725 Y116.419 E16.61642
G1 X100.358 Y115.447 E16.74110
G1 X100.140 Y114.751 E16.82862
G1 X99.956 Y114.072 E16.91304
G1 X99.798 Y113.373 E16.99903
G1 X99.672 Y112.652 E17.08686
G1 X99.587 Y111.896 E17.17815
G1 X99.554 Y111.076 E17.27663
G1 X99.618 Y110.137 E17.38958
G1 X99.695 Y109.712 E17.44141
G1 X99.873 Y108.972 E17.53274
G1 X99.986 Y108.507 E17.59016
G1 X100.277 Y107.699 E17.69322
G1 X100.441 Y107.249 E17.75069
G1 X100.819 Y106.480 E17.85352
G1 X101.034 Y106.049 E17.91132
G1 X101.492 Y105.330 E18.01362
G1 X101.752 Y104.926 E18.07127
G1 X102.293 Y104.257 E18.17451
G0 F9000 X102.604 Y104.509
G1 F1800 X102.893 Y104.154 E18.22944
G1 X103.486 Y103.568 E18.32949
G1 X103.813 Y103.247 E18.38447
G1 X104.465 Y102.732 E18.48418
G1 X104.824 Y102.449 E18.53903
G1 X105.534 Y102.006 E18.63946
G1 X105.925 Y101.765 E18.69457
G1 X106.678 Y101.405 E18.79473
G1 X107.094 Y101.208 E18.84996
G1 X108.306 Y100.788 E19.00389
G1 X109.129 Y100.599 E19.10522
G1 X109.577 Y100.501 E19.16025
G1 X110.403 Y100.407 E19.26001
G1 X110.858 Y100.358 E19.31493
G1 X111.692 Y100.357 E19.41501
G1 X112.150 Y100.359 E19.46997
G1 X112.979 Y100.450 E19.57004
G1 X113.435 Y100.503 E19.62513
G1 X114.246 Y100.685 E19.72487
G1 X114.690 Y100.786 E19.77951
G1 X115.487 Y101.061 E19.88069
G1 X115.919 Y101.214 E19.93568
G1 X116.665 Y101.569 E20.03482
G1 X117.080 Y101.767 E20.09000
G1 X117.790 Y102.208 E20.19030
G1 X118.177 Y102.450 E20.24507
G1 X118.836 Y102.968 E20.34566
G1 X119.193 Y103.252 E20.40040
G1 X119.788 Y103.837 E20.50053
G1 X120.113 Y104.160 E20.55551
G1 X120.637 Y104.806 E20.65533
G1 X120.925 Y105.163 E20.71037
G1 X121.377 Y105.867 E20.81076
G1 X121.622 Y106.253 E20.86563
G1 X121.992 Y106.999 E20.96555
G1 X122.193 Y107.410 E21.02045
G1 X122.477 Y108.193 E21.12040
G1 X122.633 Y108.625 E21.17552
G1 X122.830 Y109.441 E21.27625
G1 X122.938 Y109.900 E21.33284
G1 X123.031 Y110.693 E21.42865
G1 X123.048 Y111.210 E21.49072
G1 X122.971 Y112.322 E21.62448
G1 X122.853 Y113.076 E21.71606
G1 X122.718 Y113.725 E21.79561
G1 X122.548 Y114.393 E21.87833
G1 X122.354 Y115.039 E21.95927
G1 X122.122 Y115.726 E22.04628
G1 X121.770 Y116.557 E22.15458
G1 X121.531 Y117.108 E22.22665
G1 X120.863 Y118.237 E22.38407
G1 X120.080 Y119.272 E22.53981
G1 X119.181 Y120.211 E22.69580
G1 X118.181 Y121.040 E22.85167
G1 X117.092 Y121.748 E23.00754
G1 X115.927 Y122.327 E23.16366
G1 X114.705 Y122.767 E23.31951
G1 X113.441 Y123.064 E23.47533
G1 X112.156 Y123.213 E23.63056
G1 X111.697 Y123.215 E23.68564
G1 X110.849 Y123.214 E23.78740
G1 X109.560 Y123.064 E23.94312
G1 X108.296 Y122.767 E24.09893
G1 X107.074 Y122.327 E24.25479
G1 X105.909 Y121.748 E24.41090
G1 X104.820 Y121.040 E24.56677
G1 X103.820 Y120.211 E24.72265
G1 X102.921 Y119.272 E24.87864
G1 X102.136 Y118.235 E25.03472
G1 X101.482 Y117.125 E25.18932
G1 X101.094 Y116.266 E25.30242
G1 X100.737 Y115.317 E25.42410
G1 X100.524 Y114.638 E25.50949
G1 X100.344 Y113.976 E25.59182
G1 X100.190 Y113.294 E25.67572
G1 X100.068 Y112.595 E25.76086
G1 X99.986 Y111.866 E25.84890
G1 X99.955 Y111.082 E25.94305
G1 X100.015 Y110.186 E26.05081
G1 X100.086 Y109.795 E26.09850
G1 X100.261 Y109.066 E26.18846
G1 X100.369 Y108.622 E26.24330
G1 X100.653 Y107.835 E26.34370
G1 X100.810 Y107.406 E26.39852
G1 X101.178 Y106.657 E26.49866
G1 X101.382 Y106.246 E26.55372
G1 X101.829 Y105.546 E26.65339
G1 X102.077 Y105.161 E26.70834
G1 X102.604 Y104.509 E26.80894
G10
G0 F9000 X106.173 Y107.411
;TYPE:WALL-INNER
G11
G1 F1800 X106.303 Y107.251 E26.83368
G1 X106.711 Y106.848 E26.90250
G1 X106.861 Y106.701 E26.92770
G1 X107.311 Y106.345 E26.99656
G1 X107.466 Y106.223 E27.02023
G1 X107.958 Y105.916 E27.08982
G1 X108.132 Y105.808 E27.11439
G1 X108.650 Y105.561 E27.18326
G1 X108.842 Y105.470 E27.20875
G1 X109.570 Y105.218 E27.30120
G1 X110.141 Y105.087 E27.37150
G1 X110.330 Y105.045 E27.39473
G1 X110.905 Y104.980 E27.46417
G1 X111.110 Y104.958 E27.48891
G1 X111.686 Y104.957 E27.55803
G1 X111.885 Y104.958 E27.58191
G1 X112.468 Y105.022 E27.65230
G1 X112.666 Y105.045 E27.67621
G1 X113.228 Y105.171 E27.74533
G1 X113.423 Y105.215 E27.76932
G1 X113.976 Y105.406 E27.83952
G1 X114.165 Y105.473 E27.86359
G1 X114.684 Y105.720 E27.93256
G1 X114.868 Y105.808 E27.95704
G1 X115.359 Y106.113 E28.02640
G1 X115.528 Y106.218 E28.05027
G1 X115.980 Y106.574 E28.11932
G1 X116.145 Y106.705 E28.14460
G1 X116.551 Y107.104 E28.21291
G1 X117.061 Y107.698 E28.30686
G1 X117.188 Y107.855 E28.33109
G1 X117.499 Y108.340 E28.40023
G1 X117.609 Y108.514 E28.42493
G1 X117.864 Y109.029 E28.49389
G1 X117.953 Y109.210 E28.51809
G1 X118.151 Y109.755 E28.58768
G1 X118.219 Y109.945 E28.61189
G1 X118.354 Y110.504 E28.68090
G1 X118.401 Y110.703 E28.70544
G1 X118.440 Y111.034 E28.74543
G1 X118.443 Y111.119 E28.75564
G1 X118.395 Y111.814 E28.83924
G1 X118.237 Y112.680 E28.94487
G1 X118.114 Y113.166 E29.00503
G1 X117.968 Y113.651 E29.06581
G1 X117.821 Y114.087 E29.12102
G1 X117.545 Y114.739 E29.20599
G1 X117.427 Y115.010 E29.24145
G1 X117.036 Y115.672 E29.33372
G1 X116.576 Y116.279 E29.42511
G1 X116.038 Y116.842 E29.51856
G1 X115.450 Y117.328 E29.61010
G1 X114.809 Y117.746 E29.70193
G1 X114.114 Y118.091 E29.79504
G1 X113.400 Y118.348 E29.88610
G1 X112.647 Y118.525 E29.97892
G1 X111.879 Y118.614 E30.07170
G1 X111.691 Y118.615 E30.09426
G1 X111.120 Y118.614 E30.16278
G1 X110.354 Y118.525 E30.25532
G1 X109.601 Y118.348 E30.34814
G1 X108.887 Y118.091 E30.43920
G1 X108.192 Y117.746 E30.53231
G1 X107.551 Y117.328 E30.62414
G1 X106.963 Y116.842 E30.71568
G1 X106.425 Y116.279 E30.80913
G1 X105.965 Y115.672 E30.90052
G1 X105.572 Y115.005 E30.99342
G1 X105.346 Y114.504 E31.05938
G1 X105.090 Y113.824 E31.14657
G1 X104.937 Y113.337 E31.20783
G1 X104.701 Y112.381 E31.32599
G1 X104.576 Y111.522 E31.43016
G1 X104.561 Y111.146 E31.47531
G1 X104.594 Y110.722 E31.52635
G1 X104.732 Y110.147 E31.59730
G1 X104.782 Y109.945 E31.62228
G1 X104.976 Y109.407 E31.69091
G1 X105.047 Y109.214 E31.71558
G1 X105.299 Y108.700 E31.78428
G1 X105.391 Y108.516 E31.80896
G1 X105.702 Y108.029 E31.87830
G1 X105.813 Y107.857 E31.90287
G1 X106.173 Y107.411 E31.97165
G0 F9000 X109.631 Y110.449
G1 F1800 X109.395 Y110.800 E32.02240
G1 X109.231 Y111.172 E32.07119
G1 X109.132 Y111.545 E32.11750
G1 X109.095 Y111.974 E32.16917
G1 X109.141 Y112.421 E32.22309
G1 X109.257 Y112.822 E32.27319
G1 X109.440 Y113.200 E32.32358
G1 X109.690 Y113.543 E32.37451
G1 X109.994 Y113.833 E32.42493
G1 X110.336 Y114.064 E32.47446
G1 X110.708 Y114.230 E32.52334
G1 X111.085 Y114.330 E32.57014
G1 X111.514 Y114.367 E32.62181
G1 X111.961 Y114.321 E32.67574
G1 X112.367 Y114.204 E32.72644
G1 X112.743 Y114.018 E32.77678
G1 X113.078 Y113.775 E32.82644
G1 X113.370 Y113.473 E32.87685
G1 X113.606 Y113.122 E32.92761
G1 X113.770 Y112.750 E32.97639
G1 X113.868 Y112.381 E33.02221
G1 X113.908 Y111.949 E33.07427
G1 X113.859 Y111.498 E33.12871
G1 X113.744 Y111.100 E33.17842
G1 X113.561 Y110.722 E33.22882
G1 X113.311 Y110.379 E33.27975
G1 X113.007 Y110.089 E33.33017
G1 X112.665 Y109.858 E33.37969
G1 X112.293 Y109.692 E33.42857
G1 X111.917 Y109.592 E33.47526
G1 X111.489 Y109.555 E33.52681
G1 X111.040 Y109.601 E33.58098
G1 X110.634 Y109.718 E33.63168
G1 X110.258 Y109.904 E33.68202
G1 X109.923 Y110.147 E33.73168
G1 X109.631 Y110.449 E33.78209
G0 F9000 X109.943 Y110.702
G1 F1800 X109.747 Y110.993 E33.82419
G1 X109.610 Y111.305 E33.86508
G1 X109.527 Y111.614 E33.90348
G1 X109.497 Y111.970 E33.94635
G1 X109.536 Y112.344 E33.99147
G1 X109.632 Y112.679 E34.03329
G1 X109.784 Y112.993 E34.07515
G1 X109.992 Y113.279 E34.11759
G1 X110.245 Y113.520 E34.15952
G1 X110.531 Y113.713 E34.20092
G1 X110.842 Y113.852 E34.24180
G1 X111.154 Y113.935 E34.28054
G1 X111.510 Y113.965 E34.32341
G1 X111.884 Y113.926 E34.36854
G1 X112.222 Y113.829 E34.41073
G1 X112.536 Y113.675 E34.45270
G1 X112.814 Y113.472 E34.49401
G1 X113.058 Y113.220 E34.53610
G1 X113.254 Y112.929 E34.57820
G1 X113.391 Y112.617 E34.61909
G1 X113.473 Y112.311 E34.65711
G1 X113.506 Y111.952 E34.70037
G1 X113.465 Y111.575 E34.74588
G1 X113.369 Y111.243 E34.78735
G1 X113.217 Y110.929 E34.82921
G1 X113.009 Y110.643 E34.87165
G1 X112.756 Y110.402 E34.91358
G1 X112.470 Y110.209 E34.95498
G1 X112.159 Y110.070 E34.99586
G1 X111.847 Y109.987 E35.03460
G1 X111.493 Y109.957 E35.07723
G1 X111.117 Y109.995 E35.12258
G1 X110.779 Y110.093 E35.16481
G1 X110.465 Y110.247 E35.20678
G1 X110.187 Y110.450 E35.24809
G1 X109.943 Y110.702 E35.29018
G0 F9000 X105.866 Y107.155
G1 F1800 X106.007 Y106.981 E35.31706
G1 X106.431 Y106.562 E35.38859
G1 X106.590 Y106.406 E35.41532
G1 X107.066 Y106.030 E35.48811
G1 X107.244 Y105.889 E35.51536
G1 X107.747 Y105.576 E35.58645
G1 X107.942 Y105.456 E35.61393
G1 X108.479 Y105.199 E35.68537
G1 X108.680 Y105.104 E35.71205
G1 X109.467 Y104.831 E35.81201
G1 X110.044 Y104.699 E35.88303
G1 X110.266 Y104.650 E35.91032
G1 X110.868 Y104.582 E35.98302
G1 X111.085 Y104.558 E36.00921
G1 X111.687 Y104.557 E36.08145
G1 X111.911 Y104.558 E36.10833
G1 X112.511 Y104.624 E36.18077
G1 X112.723 Y104.648 E36.20637
G1 X113.319 Y104.782 E36.27968
G1 X113.539 Y104.832 E36.30675
G1 X114.099 Y105.025 E36.37783
G1 X114.316 Y105.102 E36.40546
G1 X114.857 Y105.359 E36.47733
G1 X115.059 Y105.456 E36.50422
G1 X115.568 Y105.772 E36.57612
G1 X115.760 Y105.892 E36.60329
G1 X116.229 Y106.261 E36.67490
G1 X116.407 Y106.403 E36.70222
G1 X116.833 Y106.821 E36.77384
G1 X116.995 Y106.982 E36.80125
G1 X117.372 Y107.447 E36.87308
G1 X117.511 Y107.619 E36.89962
G1 X117.838 Y108.129 E36.97232
G1 X117.957 Y108.315 E36.99882
G1 X118.223 Y108.853 E37.07084
G1 X118.323 Y109.056 E37.09799
G1 X118.527 Y109.620 E37.16996
G1 X118.604 Y109.834 E37.19726
G1 X118.744 Y110.412 E37.26862
G1 X118.794 Y110.626 E37.29499
G1 X118.839 Y111.010 E37.34139
G1 X118.843 Y111.124 E37.35508
G1 X118.793 Y111.856 E37.44312
G1 X118.623 Y112.785 E37.55645
G1 X118.348 Y113.776 E37.67987
G1 X118.196 Y114.225 E37.73675
G1 X117.908 Y114.906 E37.82548
G1 X117.785 Y115.192 E37.86284
G1 X117.369 Y115.894 E37.96076
G1 X116.878 Y116.543 E38.05841
G1 X116.314 Y117.133 E38.15636
G1 X115.685 Y117.653 E38.25429
G1 X115.004 Y118.096 E38.35178
G1 X114.281 Y118.456 E38.44870
G1 X113.504 Y118.735 E38.54777
G1 X112.717 Y118.921 E38.64481
G1 X111.909 Y119.014 E38.74241
G1 X111.692 Y119.015 E38.76845
G1 X111.091 Y119.014 E38.84057
G1 X110.284 Y118.921 E38.93805
G1 X109.497 Y118.735 E39.03510
G1 X108.720 Y118.456 E39.13416
G1 X107.997 Y118.096 E39.23108
G1 X107.316 Y117.653 E39.32857
G1 X106.687 Y117.133 E39.42651
G1 X106.123 Y116.543 E39.52445
